!!!OTL: Der Bettler
!!!ARE: Europa, Mitteleuropa, Deutschland
!!!SCT: A0046
!!!YEM: Copyright 1995, estate of Helmut Schaffrath.
**kern
*ICvox
*Ivox
*M4/2
*k[b-]
*F:
{2f
=1
1f
1a
=2
1cc
1ff
=3
1ee
1dd
=4
1cc
2r}
{2cc
=5
4dd
4cc
4dd
4ee
2ff
2ff
=6
1ee
1dd
=7
1.cc
2b-
=8
0a
=9
1r}
{1f
=10
1.a
2g
=11
2a
2b-
2cc
2cc
=12
1f
1r}
=13
{1a
1a
=14
2b-
2g
2a
2f
=15
2e
2f
2g
2b-
=16
1a
1g
=17
1.f}
==
!!!AGN: Romanze, Ballade, Lied
!! Melodie bei Forster V. 1556 No. 8.
!!!ONB: ESAC (Essen Associative Code) Database: ALTDEU
!!!AMT: simple quadruple
!!!AIN: vox
!!!EED: Helmut Schaffrath
!!!EEV: 1.0
*-
